src/assets/icons/wall.svg

<?xml version="1.0" encoding="UTF-8"?>
<svg width="48px" height="48px" viewBox="0 0 48 48" version="1.1" xmlns="http://www.w3.org/2000/svg" xmlns:xlink="http://www.w3.org/1999/xlink">
    <!-- Generator: Sketch 46.2 (44496) - http://www.bohemiancoding.com/sketch -->
    <title>ic_wall</title>
    <desc>Created with Sketch.</desc>
    <defs></defs>
    <g id="Components" stroke="none" stroke-width="1" fill="none" fill-rule="evenodd">
        <g id="Icons" transform="translate(-866.000000, -516.000000)" fill-rule="nonzero" fill="#000000">
            <g id="Group-10" transform="translate(866.000000, 516.000000)">
                <path d="M17,15.5 C16.7238576,15.5 16.5,15.7238576 16.5,16 L16.5,22 C16.5,22.2761424 16.7238576,22.5 17,22.5 L21,22.5 C21.2761424,22.5 21.5,22.2761424 21.5,22 L21.5,16 C21.5,15.7238576 21.2761424,15.5 21,15.5 L17,15.5 Z M17,14 L21,14 C22.1045695,14 23,14.8954305 23,16 L23,22 C23,23.1045695 22.1045695,24 21,24 L17,24 C15.8954305,24 15,23.1045695 15,22 L15,16 C15,14.8954305 15.8954305,14 17,14 Z M27,25.5 C26.7238576,25.5 26.5,25.7238576 26.5,26 L26.5,32 C26.5,32.2761424 26.7238576,32.5 27,32.5 L31,32.5 C31.2761424,32.5 31.5,32.2761424 31.5,32 L31.5,26 C31.5,25.7238576 31.2761424,25.5 31,25.5 L27,25.5 Z M27,24 L31,24 C32.1045695,24 33,24.8954305 33,26 L33,32 C33,33.1045695 32.1045695,34 31,34 L27,34 C25.8954305,34 25,33.1045695 25,32 L25,26 C25,24.8954305 25.8954305,24 27,24 Z M17,27.5 C16.7238576,27.5 16.5,27.7238576 16.5,28 L16.5,32 C16.5,32.2761424 16.7238576,32.5 17,32.5 L21,32.5 C21.2761424,32.5 21.5,32.2761424 21.5,32 L21.5,28 C21.5,27.7238576 21.2761424,27.5 21,27.5 L17,27.5 Z M17,26 L21,26 C22.1045695,26 23,26.8954305 23,28 L23,32 C23,33.1045695 22.1045695,34 21,34 L17,34 C15.8954305,34 15,33.1045695 15,32 L15,28 C15,26.8954305 15.8954305,26 17,26 Z M27,15.5 C26.7238576,15.5 26.5,15.7238576 26.5,16 L26.5,20 C26.5,20.2761424 26.7238576,20.5 27,20.5 L31,20.5 C31.2761424,20.5 31.5,20.2761424 31.5,20 L31.5,16 C31.5,15.7238576 31.2761424,15.5 31,15.5 L27,15.5 Z M27,14 L31,14 C32.1045695,14 33,14.8954305 33,16 L33,20 C33,21.1045695 32.1045695,22 31,22 L27,22 C25.8954305,22 25,21.1045695 25,20 L25,16 C25,14.8954305 25.8954305,14 27,14 Z" id="Combined-Shape"></path>
            </g>
        </g>
    </g>
</svg>

<svg width="48" height="48" viewBox="0 0 48 48" xmlns="http://www.w3.org/2000/svg"><path d="M17 15.5a.5.5 0 0 0-.5.5v6a.5.5 0 0 0 .5.5h4a.5.5 0 0 0 .5-.5v-6a.5.5 0 0 0-.5-.5h-4zm0-1.5h4a2 2 0 0 1 2 2v6a2 2 0 0 1-2 2h-4a2 2 0 0 1-2-2v-6a2 2 0 0 1 2-2zm10 11.5a.5.5 0 0 0-.5.5v6a.5.5 0 0 0 .5.5h4a.5.5 0 0 0 .5-.5v-6a.5.5 0 0 0-.5-.5h-4zm0-1.5h4a2 2 0 0 1 2 2v6a2 2 0 0 1-2 2h-4a2 2 0 0 1-2-2v-6a2 2 0 0 1 2-2zm-10 3.5a.5.5 0 0 0-.5.5v4a.5.5 0 0 0 .5.5h4a.5.5 0 0 0 .5-.5v-4a.5.5 0 0 0-.5-.5h-4zm0-1.5h4a2 2 0 0 1 2 2v4a2 2 0 0 1-2 2h-4a2 2 0 0 1-2-2v-4a2 2 0 0 1 2-2zm10-10.5a.5.5 0 0 0-.5.5v4a.5.5 0 0 0 .5.5h4a.5.5 0 0 0 .5-.5v-4a.5.5 0 0 0-.5-.5h-4zm0-1.5h4a2 2 0 0 1 2 2v4a2 2 0 0 1-2 2h-4a2 2 0 0 1-2-2v-4a2 2 0 0 1 2-2z" fill-rule="nonzero" fill="#000"/></svg>
